X: 32601
T: Planxty O'Rourke
R: jig
M: 6/8
K: Gmajor
E|Eed e2 f|gba gfe|dBA G/A/BA|
{A}GFG E2 D|E2 c {e}dcd|E2 e e2 f|Bba b2 a|gfe e2||
g|fed efg|{c}BAG FED|D2 d {e}d=cd|
Eee ed/B/A/F/|E/F/GE E/F/GE|D/E/FD D/E/FD|
FBA GFE|DBB B2||DEe E2e|
E2A FED|E2B gfe|
M:7/8
d/c/B/A/ B/d/e/f/ He2 b|
M:6/8
g>fe/d/ f>ed/B/|edB AFD|E/E/Ee E/E/Ee|FDF E2||

